X:148
T:Mount. VWMLa.148, The
%%VWML:Anon2-3049-p89-0
F:http://www.vwml.org/record/Anon2/3049/p89
R:Jig
S:Anon. MS, late 18thC, Vaughan Williams Mem. Library
O:England;Yorkshire
Z:vmp/efdss.Simon Wilson. Reviewed PJH 2008.
M:6/8
L:1/8
Q:3/8=120
K:D
A|d3cBc|d3def|!turn!gfg e2a|{a}g3 !turn!f2A|\
B2B Bcd|AFD DFA|Bgf edc|d3 D2:|
|:A|AGE CEG|A2F D2A|AGE CEG|A2F D2A|\
BGD ddd|AFD ddd|ABA AGF|!turn!F3 !D.C.!E2:|
